packages/icons/src/SVG/menu.svg

<!-- Generated by IcoMoon.io -->
<svg version="1.1" xmlns="http://www.w3.org/2000/svg" width="12" height="12" viewBox="0 0 12 12">
<title>menu</title>
<path d="M0 1h12v2h-12v-2z"></path>
<path d="M0 5h12v2h-12v-2z"></path>
<path d="M12 9h-12v2h12v-2z"></path>
</svg>

<svg width="12" height="12" viewBox="0 0 12 12" fill="none" xmlns="http://www.w3.org/2000/svg">
<path d="M0 1H12V3H0V1Z" fill="#4C505B"/>
<path d="M0 5H12V7H0V5Z" fill="#4C505B"/>
<path d="M12 9H0V11H12V9Z" fill="#4C505B"/>
</svg>
